packages/bezier-icons/icons/face-nomouth.svg

<svg width="24" height="24" viewBox="0 0 24 24" fill="none" xmlns="http://www.w3.org/2000/svg">
<path fill-rule="evenodd" clip-rule="evenodd" d="M12.0002 20.0001C7.5892 20.0001 4.0002 16.4111 4.0002 12.0001C4.0002 7.58912 7.5892 4.00012 12.0002 4.00012C16.4112 4.00012 20.0002 7.58912 20.0002 12.0001C20.0002 16.4111 16.4112 20.0001 12.0002 20.0001ZM12.0002 2.00012C6.4772 2.00012 2.0002 6.47812 2.0002 12.0001C2.0002 17.5221 6.4772 22.0001 12.0002 22.0001C17.5222 22.0001 22.0002 17.5221 22.0002 12.0001C22.0002 6.47812 17.5222 2.00012 12.0002 2.00012ZM8.7863 8.98254C7.9413 8.98254 7.5873 9.59254 7.5873 11.0875C7.5873 12.5835 7.9413 13.1935 8.7863 13.1935C9.6313 13.1935 9.9843 12.5835 9.9843 11.0875C9.9843 9.59254 9.6313 8.98254 8.7863 8.98254ZM14.015 11.0875C14.015 9.59254 14.369 8.98254 15.214 8.98254C16.059 8.98254 16.412 9.59254 16.412 11.0875C16.412 12.5835 16.059 13.1935 15.214 13.1935C14.369 13.1935 14.015 12.5835 14.015 11.0875Z" fill="#313234"/>
</svg>

<svg xmlns="http://www.w3.org/2000/svg" width="24" height="24" fill="none" viewBox="0 0 24 24"><path fill="#313234" fill-rule="evenodd" d="M12 20c-4.41 0-8-3.589-8-8s3.59-8 8-8 8 3.59 8 8-3.589 8-8 8m0-18C6.477 2 2 6.478 2 12s4.477 10 10 10 10-4.478 10-10S17.522 2 12 2M8.786 8.983c-.845 0-1.199.61-1.199 2.105s.354 2.106 1.2 2.106c.844 0 1.197-.61 1.197-2.107 0-1.494-.353-2.104-1.198-2.104m5.229 2.105c0-1.495.354-2.105 1.199-2.105s1.198.61 1.198 2.105-.353 2.106-1.198 2.106-1.199-.61-1.199-2.107" clip-rule="evenodd"/></svg>
